collectives/static/img/icon/ionicon/ios-arrow-dropdown.svg

<svg enable-background="new 0 0 512 512" viewBox="0 0 512 512" xmlns="http://www.w3.org/2000/svg"><path d="m147.6 210.7c-7.5 7.5-7.5 19.8 0 27.3l95.7 95.4c7.3 7.3 19.1 7.5 26.6.6l94.3-94c3.8-3.8 5.7-8.7 5.7-13.7 0-4.9-1.9-9.9-5.6-13.6-7.5-7.5-19.7-7.6-27.3 0l-81 79.8-81.1-81.9c-7.5-7.5-19.7-7.5-27.3.1z"/><path d="m48 256c0 114.9 93.1 208 208 208s208-93.1 208-208-93.1-208-208-208-208 93.1-208 208zm332.4-124.4c33.3 33.2 51.6 77.4 51.6 124.4s-18.3 91.2-51.6 124.4c-33.2 33.3-77.4 51.6-124.4 51.6s-91.2-18.3-124.4-51.6c-33.3-33.2-51.6-77.4-51.6-124.4s18.3-91.2 51.6-124.4c33.2-33.3 77.4-51.6 124.4-51.6s91.2 18.3 124.4 51.6z"/></svg>

<?xml version="1.0" encoding="utf-8"?>
<!-- Generator: Adobe Illustrator 22.0.1, SVG Export Plug-In . SVG Version: 6.00 Build 0)  -->
<svg version="1.1" id="Layer_1" xmlns="http://www.w3.org/2000/svg" xmlns:xlink="http://www.w3.org/1999/xlink" x="0px" y="0px"
	 viewBox="0 0 512 512" style="enable-background:new 0 0 512 512;" xml:space="preserve">
<g>
	<path d="M147.6,210.7c-7.5,7.5-7.5,19.8,0,27.3l95.7,95.4c7.3,7.3,19.1,7.5,26.6,0.6l94.3-94c3.8-3.8,5.7-8.7,5.7-13.7
		c0-4.9-1.9-9.9-5.6-13.6c-7.5-7.5-19.7-7.6-27.3,0L256,292.5l-81.1-81.9C167.4,203.1,155.2,203.1,147.6,210.7z"/>
	<path d="M48,256c0,114.9,93.1,208,208,208s208-93.1,208-208c0-114.9-93.1-208-208-208S48,141.1,48,256z M380.4,131.6
		C413.7,164.8,432,209,432,256c0,47-18.3,91.2-51.6,124.4C347.2,413.7,303,432,256,432c-47,0-91.2-18.3-124.4-51.6
		C98.3,347.2,80,303,80,256c0-47,18.3-91.2,51.6-124.4C164.8,98.3,209,80,256,80S347.2,98.3,380.4,131.6z"/>
</g>
</svg>
